packages/tokens/icons/pipeline/size32Px.svg

<svg viewBox="0 0 32 32" fill="none" xmlns="http://www.w3.org/2000/svg" width="1em" height="1em"><path d="M8.5 26.5L8.5 22.5C8.5 19.1863 11.1863 16.5 14.5 16.5H15.5M9.5 8.5H15.5M9.5 4.5H15.5M12.5 26.5V22.5C12.5 21.3954 13.3954 20.5 14.5 20.5H15.5M17.5 16.5H18.5C19.6046 16.5 20.5 15.6046 20.5 14.5V10.5C20.5 9.39543 19.6046 8.5 18.5 8.5H17.5M17.5 20.5H18.5C21.8137 20.5 24.5 17.8137 24.5 14.5V10.5C24.5 7.18629 21.8137 4.5 18.5 4.5H17.5" stroke="currentColor" stroke-linecap="round"/><path d="M7.5 27C7.5 26.7239 7.72386 26.5 8 26.5H13C13.2761 26.5 13.5 26.7239 13.5 27V28C13.5 28.2761 13.2761 28.5 13 28.5H8C7.72386 28.5 7.5 28.2761 7.5 28V27Z" stroke="currentColor" stroke-linecap="round"/><path d="M15.5 16C15.5 15.7239 15.7239 15.5 16 15.5L17 15.5C17.2761 15.5 17.5 15.7239 17.5 16V21C17.5 21.2761 17.2761 21.5 17 21.5H16C15.7239 21.5 15.5 21.2761 15.5 21V16Z" stroke="currentColor" stroke-linecap="round"/><path d="M15.5 4C15.5 3.72386 15.7239 3.5 16 3.5H17C17.2761 3.5 17.5 3.72386 17.5 4V9C17.5 9.27614 17.2761 9.5 17 9.5H16C15.7239 9.5 15.5 9.27614 15.5 9V4Z" stroke="currentColor" stroke-linecap="round"/><path d="M9 3.5C9.27614 3.5 9.5 3.72386 9.5 4L9.5 9C9.5 9.27614 9.27614 9.5 9 9.5L8 9.5C7.72386 9.5 7.5 9.27614 7.5 9L7.5 4C7.5 3.72386 7.72386 3.5 8 3.5L9 3.5Z" stroke="currentColor" stroke-linecap="round"/></svg>

<svg xmlns="http://www.w3.org/2000/svg" fill="none" viewBox="0 0 32 32" width="1em" height="1em"><path stroke="currentColor" stroke-linecap="round" d="M8.5 26.5v-4a6 6 0 0 1 6-6h1m-6-8h6m-6-4h6m-3 22v-4a2 2 0 0 1 2-2h1m2-4h1a2 2 0 0 0 2-2v-4a2 2 0 0 0-2-2h-1m0 12h1a6 6 0 0 0 6-6v-4a6 6 0 0 0-6-6h-1M7.5 27a.5.5 0 0 1 .5-.5h5a.5.5 0 0 1 .5.5v1a.5.5 0 0 1-.5.5H8a.5.5 0 0 1-.5-.5v-1Zm8-11a.5.5 0 0 1 .5-.5h1a.5.5 0 0 1 .5.5v5a.5.5 0 0 1-.5.5h-1a.5.5 0 0 1-.5-.5v-5Zm0-12a.5.5 0 0 1 .5-.5h1a.5.5 0 0 1 .5.5v5a.5.5 0 0 1-.5.5h-1a.5.5 0 0 1-.5-.5V4ZM9 3.5a.5.5 0 0 1 .5.5v5a.5.5 0 0 1-.5.5H8a.5.5 0 0 1-.5-.5V4a.5.5 0 0 1 .5-.5h1Z"/></svg>
